X: 2429
T: BILLY THE KID'S JIG
R:
B: Kerr's v.2 p.49 #429
Z: 2016 John Chambers <jc:trillian.mit.edu>
N: The first note in bars 2,6 are missing its 2nd flag; fixed.
M: C
L: 1/8
K: A
|:\
A,4 ^G,4 | z>A,C>E A4 |\
B>AG>B A>ce>a | (3gfe (3dcB (3AGF (3EDB, |\
A,4 ^G,4 | z>A,C>E A4 |
B>AG>B A>ce>a | (3gfe (3dcB A2 z2 :|\
aA za aA za | a>=g (e>f) g4 |\
(3=GBd =g>a g4 |
(3Bd=g a>b a4 |\
aA za aA za | a>=g (e>f) g4 |\
a>f=g>e f>de>c | B>ed>B A4 :|

%%sep 1 1 500
%%sep 1 1 500

